X:290
T:Templeglantine Reel 1, The
B:CRE2.153 (Teampall an GhleanntÃÂÃÂÃÂÃÂ¡in)
F:file ID: cre.2/290tempg1
Q:180
L:1/8
M:4/4
R:reel
K:A
e2 fg||a2 ec Acec|Acec dB B2|eaaf c2 (3ABc|dfed cA A2|
(3aba ec AceA|Acec dB B2|eaaf e2 (3efg|a2 ba afed||
(3cBA eA fAeA|(3cBA ec B2 B2|(3cBA eA fAeA|dfed A4|
(3cBA eA fAeA|(3cBA ec B2 B2|Accc defa|gbeg a4|]

%%%

